X: 4073
T: MOGGY ON THE SHORE
R: Reel.
%R: reel
B: James Kerr "Merry Melodies" v.4 p.10 #73
Z: 2016 John Chambers <jc:trillian.mit.edu>
M: C|
L: 1/8
K: D
|:\
dDDF EDB,D | dDDf gfef |\
[1 g2(fg) edef | (dA) (3(Bcd) AFFA :|\
[2 fdeB dFEF | (3(DED) (DA,) (B,D) D2 ||
|:\
d2(ef) gfeg | fdad bdad | gafg edef |\
[1 dBAG (Ad)d2 :|[2 (dA) (3(Bcd) AFFA |]

%%sep 1 1 500
%%sep 1 1 500

